X:1
T:The Morning Dew
R:reel
M:4/4
L:1/8
K:Edor
|:~B2EB GBEB|BEGB ADFA|~B2EB GBEB|gedB ADFA:|
|~B2eg fded|~B2eg fddA|~B2eg fded|(3Bcd AG FDDA|
|~B2eg fded|~B2eg fddc|dfaf gefd|~B2AF BEEA|